places/96/folder-cloud.svg

<svg id="svg15" version="1.1" viewBox="0 0 96 96" xmlns="http://www.w3.org/2000/svg" xmlns:xlink="http://www.w3.org/1999/xlink">
    <defs id="defs5455">
        <linearGradient id="linearGradient4178" x2="0" y1="541.79797" y2="499.78421" gradientTransform="matrix(1.4999996,0,0,1.4995115,-576.85701,-725.43213)" gradientUnits="userSpaceOnUse">
            <stop id="stop4174-6-7" stop-color="#3daee9" offset="0"/>
            <stop id="stop4176-6-5" stop-color="#6cc1ef" offset="1"/>
        </linearGradient>
    </defs>
    <g id="layer1" transform="translate(-384.57144,-483.798)">
        <path id="rect4180" transform="translate(384.57144,483.798)" d="m6 9-1.17e-5 20.999996h84l1.2e-5 -14.999996h-42l-6-6z" fill="#147eb8" stroke-width="1.5"/>
        <path id="rect4113" transform="translate(384.57144,483.798)" d="M 38.999988,23.999996 33,30 H 5 V 87 H 91 V 24 Z" fill="url(#linearGradient4178)" stroke-width="1.5"/>
        <g fill-opacity=".235294" stroke-width="1.5">
            <path id="path4224-1" d="m389.57143 513.798v1h29l4.99999-6.99983-6.00001 6z" fill="#fff" fill-rule="evenodd"/>
            <path id="path4228-0" d="m390.57143 512.798v1.00017h26.99998l6.00002-6.00017-7 5z" fill-rule="evenodd"/>
            <path id="path4151-2" transform="translate(384.57144,483.798)" d="m4.9999883 85.999996v1l86-0.01628v-0.983722z"/>
            <path id="path4196" transform="translate(384.57144,483.798)" d="M 42,9 46.999988,15.999996 90,16 V 15 H 48 Z" fill="#fff" fill-rule="evenodd"/>
        </g>
        <path id="path1089" transform="translate(384.57144,483.798)" d="m48.5 45c-5.246705 0-9.5 4.253295-9.5 9.5-3.8e-5 0.521066 0.05565 1.037893 0.140625 1.550781-0.212684-0.024865-0.425883-0.050899-0.640625-0.050781-3.037566 0-5.5 2.462434-5.5 5.5s2.462434 5.5 5.5 5.5h17c4.142136 0 7.5-3.357864 7.5-7.5 3.8e-4 -3.317481-2.171317-6.184342-5.255859-7.150391-0.975674-4.20899-4.738498-7.349609-9.244141-7.349609zm-0.113281 1.013672c0.03776-2.52e-4 0.07552-2.52e-4 0.113281 0 3.95141 0 7.263446 2.700045 8.214844 6.353516 0.01578 0.06073 0.02658 0.122536 0.04102 0.183593 0.04676 0.197395 0.09223 0.395218 0.125 0.597657 4e-3 8.75e-4 0.0077 3e-3 0.01172 0.0039 2.981812 0.65404 5.106751 3.29495 5.107416 6.347662 0 3.589851-2.910149 6.5-6.5 6.5h-17c-2.485281 0-4.5-2.014719-4.5-4.5s2.014719-4.5 4.5-4.5c0.320531-3.4e-5 0.638052 0.04024 0.949219 0.107422 0.127314 0.02764 0.252713 0.0611 0.376953 0.09961 0.05676 0.01752 0.113855 0.03296 0.169922 0.05273 0.184427 0.06528 0.366235 0.139572 0.541015 0.228515 0.0018 9.31e-4 4e-3 9.06e-4 0.0059 2e-3 -0.143596-0.38279-0.254772-0.776472-0.341797-1.175781-0.12818-0.591029-0.201283-1.193778-0.201212-1.800824-4.13e-4 -4.650535 3.736597-8.438022 8.386719-8.5z" fill="#1272a5" stroke-width=".6105"/>
    </g>
</svg>

<svg xmlns="http://www.w3.org/2000/svg" viewBox="0 0 96 96">
  <defs id="defs3051">
    <style type="text/css" id="current-color-scheme">
      .ColorScheme-Text {
        color:#232629;
      }
      .ColorScheme-Highlight {
        color:#3daee9;
      }
      </style>
  </defs>
 <path 
     style="fill:currentColor" 
     d="M 6 9 L 6 30 L 5 30 L 5 87 L 91 87 L 91 24 L 90 24 L 90 15 L 48 15 L 42 9 L 6 9 z "
     class="ColorScheme-Highlight"
     />
 <path 
     style="fill-opacity:0.33"
     d="M 6 9 L 6 30 L 33 30 L 39 24 L 90 24 L 90 15 L 48 15 L 42 9 L 6 9 z "
     />
 <path 
     style="fill:#ffffff;fill-opacity:0.2"
     d="M 42 9 L 47 16 L 90 16 L 90 15 L 48 15 L 42 9 z M 39 24 L 33 30 L 5 30 L 5 31 L 34 31 L 39 24 z "
     />
 <path 
     style="fill-opacity:0.2;fill-rule:evenodd"
     d="M 39 24 L 32 29 L 6 29 L 6 30 L 33 30 L 39 24 z M 5 86 L 5 87 L 91 87 L 91 86 L 5 86 z "
     class="ColorScheme-Text"
     />
 <path 
     style="fill:currentColor;fill-opacity:0.6;stroke:none"  
     d="M 48.5 45 C 43.2 45 39 49.2 39 54.5 C 39 55 39 55.5 39.1 56.1 C 38.9 56 38.7 56 38.5 56 C 35.5 56 33 58.5 33 61.5 C 33 64.5 35.5 67 38.5 67 L 55.5 67 C 59.6 67 63 63.6 63 59.5 C 63 56.2 60.8 53.3 57.7 52.4 C 56.8 48.1 53 45 48.5 45 z M 48.4 46 C 48.4 46 48.5 46 48.5 46 C 52.5 46 55.8 48.7 56.7 52.4 C 56.7 52.4 56.7 52.5 56.8 52.6 C 56.8 52.7 56.8 52.9 56.9 53.1 C 56.9 53.1 56.9 53.1 56.9 53.2 C 59.9 53.8 62 56.5 62 59.5 C 62 63.1 59.1 66 55.5 66 L 38.5 66 C 36 66 34 64 34 61.5 C 34 59 36 57 38.5 57 C 39.2 57 39.9 57.2 40.5 57.5 C 40.5 57.5 40.5 57.5 40.5 57.5 C 40.4 57.1 40.3 56.7 40.2 56.3 C 40.1 55.7 40 55.1 40 54.5 C 40 49.9 43.7 46.1 48.4 46 z "
     class="ColorScheme-Text"
     />
</svg>
